src/assets/images/icon-calendar.svg

<?xml version="1.0"?>
<svg xmlns="http://www.w3.org/2000/svg" fill="#000000" viewBox="0 0 100 100" width="20px" height="20px">    <path d="M 25.921875 11.960938 C 25.368875 11.960938 24.921875 12.408938 24.921875 12.960938 L 24.921875 14.960938 L 22.689453 14.960938 C 17.855453 14.960937 13.921875 18.894516 13.921875 23.728516 L 13.921875 85.222656 C 13.921875 87.284656 15.598156 88.960938 17.660156 88.960938 L 83.433594 88.960938 C 85.356594 88.960938 86.921828 87.396609 86.923828 85.474609 L 86.923828 23.728516 C 86.923828 18.894516 82.988297 14.960938 78.154297 14.960938 L 75.921875 14.960938 L 75.921875 12.960938 C 75.921875 12.408938 75.474875 11.960938 74.921875 11.960938 C 74.368875 11.960938 73.921875 12.408938 73.921875 12.960938 L 73.921875 14.960938 L 68.921875 14.960938 L 68.921875 12.960938 C 68.921875 12.408938 68.474875 11.960938 67.921875 11.960938 C 67.368875 11.960938 66.921875 12.408938 66.921875 12.960938 L 66.921875 14.960938 L 61.921875 14.960938 L 61.921875 12.960938 C 61.921875 12.408938 61.474875 11.960938 60.921875 11.960938 C 60.368875 11.960938 59.921875 12.408938 59.921875 12.960938 L 59.921875 14.960938 L 54.921875 14.960938 L 54.921875 12.960938 C 54.921875 12.408938 54.474875 11.960938 53.921875 11.960938 C 53.368875 11.960938 52.921875 12.408938 52.921875 12.960938 L 52.921875 14.960938 L 47.921875 14.960938 L 47.921875 12.960938 C 47.921875 12.408938 47.474875 11.960938 46.921875 11.960938 C 46.368875 11.960938 45.921875 12.408938 45.921875 12.960938 L 45.921875 14.960938 L 40.921875 14.960938 L 40.921875 12.960938 C 40.921875 12.408938 40.474875 11.960938 39.921875 11.960938 C 39.368875 11.960938 38.921875 12.408938 38.921875 12.960938 L 38.921875 14.960938 L 33.921875 14.960938 L 33.921875 12.960938 C 33.921875 12.408938 33.474875 11.960938 32.921875 11.960938 C 32.368875 11.960938 31.921875 12.408938 31.921875 12.960938 L 31.921875 14.960938 L 26.921875 14.960938 L 26.921875 12.960938 C 26.921875 12.408938 26.474875 11.960938 25.921875 11.960938 z M 22.689453 16.960938 L 24.921875 16.960938 L 24.921875 18.960938 C 24.921875 19.512937 25.368875 19.960938 25.921875 19.960938 C 26.474875 19.960938 26.921875 19.512938 26.921875 18.960938 L 26.921875 16.960938 L 31.921875 16.960938 L 31.921875 18.960938 C 31.921875 19.512937 32.368875 19.960938 32.921875 19.960938 C 33.474875 19.960938 33.921875 19.512938 33.921875 18.960938 L 33.921875 16.960938 L 38.921875 16.960938 L 38.921875 18.960938 C 38.921875 19.512937 39.368875 19.960938 39.921875 19.960938 C 40.474875 19.960938 40.921875 19.512938 40.921875 18.960938 L 40.921875 16.960938 L 45.921875 16.960938 L 45.921875 18.960938 C 45.921875 19.512937 46.368875 19.960938 46.921875 19.960938 C 47.474875 19.960938 47.921875 19.512938 47.921875 18.960938 L 47.921875 16.960938 L 52.921875 16.960938 L 52.921875 18.960938 C 52.921875 19.512937 53.368875 19.960938 53.921875 19.960938 C 54.474875 19.960938 54.921875 19.512938 54.921875 18.960938 L 54.921875 16.960938 L 59.921875 16.960938 L 59.921875 18.960938 C 59.921875 19.512937 60.368875 19.960938 60.921875 19.960938 C 61.474875 19.960938 61.921875 19.512938 61.921875 18.960938 L 61.921875 16.960938 L 66.921875 16.960938 L 66.921875 18.960938 C 66.921875 19.512937 67.368875 19.960938 67.921875 19.960938 C 68.474875 19.960938 68.921875 19.512938 68.921875 18.960938 L 68.921875 16.960938 L 73.921875 16.960938 L 73.921875 18.960938 C 73.921875 19.512937 74.368875 19.960938 74.921875 19.960938 C 75.474875 19.960938 75.921875 19.512938 75.921875 18.960938 L 75.921875 16.960938 L 78.152344 16.960938 C 81.884344 16.960937 84.919922 19.997516 84.919922 23.728516 L 84.919922 30.960938 L 81.421875 30.960938 C 81.145875 30.960938 80.921875 31.184938 80.921875 31.460938 C 80.921875 31.736937 81.145875 31.960938 81.421875 31.960938 L 84.919922 31.960938 L 84.919922 85.474609 C 84.919922 86.294609 84.253594 86.960938 83.433594 86.960938 L 17.660156 86.960938 C 16.701156 86.960938 15.921875 86.181656 15.921875 85.222656 L 15.921875 31.960938 L 75.421875 31.960938 C 75.698875 31.960937 75.921875 31.736937 75.921875 31.460938 C 75.921875 31.184938 75.697875 30.960938 75.421875 30.960938 L 15.921875 30.960938 L 15.921875 23.728516 C 15.921875 19.997516 18.958453 16.960938 22.689453 16.960938 z M 24.421875 20.960938 C 23.042875 20.960938 21.921875 22.082937 21.921875 23.460938 C 21.921875 24.838938 23.042875 25.960938 24.421875 25.960938 C 25.800875 25.960938 26.921875 24.838938 26.921875 23.460938 C 26.921875 22.082937 25.800875 20.960938 24.421875 20.960938 z M 76.421875 20.960938 C 75.042875 20.960938 73.921875 22.082937 73.921875 23.460938 C 73.921875 24.838938 75.042875 25.960938 76.421875 25.960938 C 77.800875 25.960938 78.921875 24.838938 78.921875 23.460938 C 78.921875 22.082937 77.800875 20.960938 76.421875 20.960938 z M 24.421875 21.960938 C 25.248875 21.960938 25.921875 22.633938 25.921875 23.460938 C 25.921875 24.287937 25.248875 24.960938 24.421875 24.960938 C 23.594875 24.960938 22.921875 24.287937 22.921875 23.460938 C 22.921875 22.633938 23.594875 21.960938 24.421875 21.960938 z M 76.421875 21.960938 C 77.248875 21.960938 77.921875 22.633938 77.921875 23.460938 C 77.921875 24.287937 77.248875 24.960938 76.421875 24.960938 C 75.594875 24.960938 74.921875 24.287937 74.921875 23.460938 C 74.921875 22.633938 75.594875 21.960938 76.421875 21.960938 z M 77.421875 30.960938 C 77.145875 30.960938 76.921875 31.184938 76.921875 31.460938 C 76.921875 31.736937 77.145875 31.960938 77.421875 31.960938 L 79.421875 31.960938 C 79.698875 31.960937 79.921875 31.736937 79.921875 31.460938 C 79.921875 31.184938 79.697875 30.960938 79.421875 30.960938 L 77.421875 30.960938 z M 36.421875 40.960938 C 36.145875 40.960938 35.921875 41.184937 35.921875 41.460938 C 35.921875 41.736937 36.145875 41.960938 36.421875 41.960938 L 37.921875 41.960938 L 37.921875 46.960938 L 32.921875 46.960938 L 32.921875 44.460938 C 32.921875 44.184937 32.697875 43.960938 32.421875 43.960938 C 32.145875 43.960938 31.921875 44.184937 31.921875 44.460938 L 31.921875 47.460938 C 31.921875 47.736938 32.145875 47.960938 32.421875 47.960938 L 38.421875 47.960938 C 38.698875 47.960937 38.921875 47.736938 38.921875 47.460938 L 38.921875 41.460938 C 38.921875 41.184938 38.697875 40.960938 38.421875 40.960938 L 36.421875 40.960938 z M 42.421875 40.960938 C 42.145875 40.960938 41.921875 41.184937 41.921875 41.460938 L 41.921875 47.460938 C 41.921875 47.736938 42.145875 47.960938 42.421875 47.960938 L 48.421875 47.960938 C 48.698875 47.960937 48.921875 47.736938 48.921875 47.460938 L 48.921875 41.460938 C 48.921875 41.184938 48.697875 40.960938 48.421875 40.960938 L 42.421875 40.960938 z M 52.421875 40.960938 C 52.145875 40.960938 51.921875 41.184937 51.921875 41.460938 L 51.921875 47.460938 C 51.921875 47.736938 52.145875 47.960938 52.421875 47.960938 L 58.421875 47.960938 C 58.698875 47.960937 58.921875 47.736938 58.921875 47.460938 L 58.921875 41.460938 C 58.921875 41.184938 58.697875 40.960938 58.421875 40.960938 L 52.421875 40.960938 z M 62.421875 40.960938 C 62.145875 40.960938 61.921875 41.184937 61.921875 41.460938 L 61.921875 47.460938 C 61.921875 47.736938 62.145875 47.960938 62.421875 47.960938 L 68.421875 47.960938 C 68.698875 47.960937 68.921875 47.736938 68.921875 47.460938 L 68.921875 41.460938 C 68.921875 41.184938 68.697875 40.960938 68.421875 40.960938 L 62.421875 40.960938 z M 72.421875 40.960938 C 72.145875 40.960938 71.921875 41.184937 71.921875 41.460938 L 71.921875 47.460938 C 71.921875 47.736938 72.145875 47.960938 72.421875 47.960938 L 78.421875 47.960938 C 78.698875 47.960937 78.921875 47.736938 78.921875 47.460938 L 78.921875 41.460938 C 78.921875 41.184938 78.697875 40.960938 78.421875 40.960938 L 72.421875 40.960938 z M 42.921875 41.960938 L 47.921875 41.960938 L 47.921875 46.960938 L 42.921875 46.960938 L 42.921875 41.960938 z M 52.921875 41.960938 L 57.921875 41.960938 L 57.921875 46.960938 L 52.921875 46.960938 L 52.921875 41.960938 z M 62.921875 41.960938 L 67.921875 41.960938 L 67.921875 46.960938 L 62.921875 46.960938 L 62.921875 41.960938 z M 72.921875 41.960938 L 77.921875 41.960938 L 77.921875 46.960938 L 72.921875 46.960938 L 72.921875 41.960938 z M 22.421875 50.960938 C 22.145875 50.960938 21.921875 51.184937 21.921875 51.460938 L 21.921875 57.460938 C 21.921875 57.736938 22.145875 57.960938 22.421875 57.960938 L 28.421875 57.960938 C 28.698875 57.960937 28.921875 57.736938 28.921875 57.460938 L 28.921875 51.460938 C 28.921875 51.184937 28.697875 50.960938 28.421875 50.960938 L 22.421875 50.960938 z M 32.421875 50.960938 C 32.145875 50.960938 31.921875 51.184937 31.921875 51.460938 L 31.921875 57.460938 C 31.921875 57.736938 32.145875 57.960938 32.421875 57.960938 L 38.421875 57.960938 C 38.698875 57.960937 38.921875 57.736938 38.921875 57.460938 L 38.921875 51.460938 C 38.921875 51.184937 38.697875 50.960938 38.421875 50.960938 L 32.421875 50.960938 z M 42.421875 50.960938 C 42.145875 50.960938 41.921875 51.184937 41.921875 51.460938 L 41.921875 57.460938 C 41.921875 57.736938 42.145875 57.960938 42.421875 57.960938 L 48.421875 57.960938 C 48.698875 57.960937 48.921875 57.736938 48.921875 57.460938 L 48.921875 51.460938 C 48.921875 51.184937 48.697875 50.960938 48.421875 50.960938 L 42.421875 50.960938 z M 52.421875 50.960938 C 52.145875 50.960938 51.921875 51.184937 51.921875 51.460938 L 51.921875 57.460938 C 51.921875 57.736938 52.145875 57.960938 52.421875 57.960938 L 58.421875 57.960938 C 58.698875 57.960937 58.921875 57.736938 58.921875 57.460938 L 58.921875 51.460938 C 58.921875 51.184937 58.697875 50.960938 58.421875 50.960938 L 52.421875 50.960938 z M 62.421875 50.960938 C 62.145875 50.960938 61.921875 51.184937 61.921875 51.460938 L 61.921875 57.460938 C 61.921875 57.736938 62.145875 57.960938 62.421875 57.960938 L 68.421875 57.960938 C 68.698875 57.960937 68.921875 57.736938 68.921875 57.460938 L 68.921875 51.460938 C 68.921875 51.184937 68.697875 50.960938 68.421875 50.960938 L 62.421875 50.960938 z M 72.421875 50.960938 C 72.145875 50.960938 71.921875 51.184937 71.921875 51.460938 L 71.921875 57.460938 C 71.921875 57.736938 72.145875 57.960938 72.421875 57.960938 L 78.421875 57.960938 C 78.698875 57.960937 78.921875 57.736938 78.921875 57.460938 L 78.921875 51.460938 C 78.921875 51.184937 78.697875 50.960938 78.421875 50.960938 L 72.421875 50.960938 z M 22.921875 51.960938 L 27.921875 51.960938 L 27.921875 56.960938 L 22.921875 56.960938 L 22.921875 51.960938 z M 32.921875 51.960938 L 37.921875 51.960938 L 37.921875 56.960938 L 32.921875 56.960938 L 32.921875 51.960938 z M 42.921875 51.960938 L 47.921875 51.960938 L 47.921875 56.960938 L 42.921875 56.960938 L 42.921875 51.960938 z M 52.921875 51.960938 L 57.921875 51.960938 L 57.921875 56.960938 L 52.921875 56.960938 L 52.921875 51.960938 z M 62.921875 51.960938 L 67.921875 51.960938 L 67.921875 56.960938 L 62.921875 56.960938 L 62.921875 51.960938 z M 72.921875 51.960938 L 77.921875 51.960938 L 77.921875 56.960938 L 72.921875 56.960938 L 72.921875 51.960938 z M 22.421875 60.960938 C 22.145875 60.960938 21.921875 61.184937 21.921875 61.460938 L 21.921875 67.460938 C 21.921875 67.736938 22.145875 67.960938 22.421875 67.960938 L 28.421875 67.960938 C 28.698875 67.960938 28.921875 67.736937 28.921875 67.460938 L 28.921875 61.460938 C 28.921875 61.184937 28.697875 60.960938 28.421875 60.960938 L 22.421875 60.960938 z M 32.421875 60.960938 C 32.145875 60.960938 31.921875 61.184937 31.921875 61.460938 L 31.921875 67.460938 C 31.921875 67.736938 32.145875 67.960938 32.421875 67.960938 L 38.421875 67.960938 C 38.698875 67.960938 38.921875 67.736937 38.921875 67.460938 L 38.921875 61.460938 C 38.921875 61.184937 38.697875 60.960938 38.421875 60.960938 L 32.421875 60.960938 z M 42.421875 60.960938 C 42.145875 60.960938 41.921875 61.184937 41.921875 61.460938 L 41.921875 67.460938 C 41.921875 67.736938 42.145875 67.960938 42.421875 67.960938 L 48.421875 67.960938 C 48.698875 67.960938 48.921875 67.736937 48.921875 67.460938 L 48.921875 61.460938 C 48.921875 61.184937 48.697875 60.960938 48.421875 60.960938 L 42.421875 60.960938 z M 52.421875 60.960938 C 52.145875 60.960938 51.921875 61.184937 51.921875 61.460938 L 51.921875 67.460938 C 51.921875 67.736938 52.145875 67.960938 52.421875 67.960938 L 58.421875 67.960938 C 58.698875 67.960938 58.921875 67.736937 58.921875 67.460938 L 58.921875 61.460938 C 58.921875 61.184937 58.697875 60.960938 58.421875 60.960938 L 52.421875 60.960938 z M 62.421875 60.960938 C 62.145875 60.960938 61.921875 61.184937 61.921875 61.460938 L 61.921875 67.460938 C 61.921875 67.736938 62.145875 67.960938 62.421875 67.960938 L 68.421875 67.960938 C 68.698875 67.960938 68.921875 67.736937 68.921875 67.460938 L 68.921875 61.460938 C 68.921875 61.184937 68.697875 60.960938 68.421875 60.960938 L 62.421875 60.960938 z M 72.421875 60.960938 C 72.145875 60.960938 71.921875 61.184937 71.921875 61.460938 L 71.921875 67.460938 C 71.921875 67.736938 72.145875 67.960938 72.421875 67.960938 L 78.421875 67.960938 C 78.698875 67.960938 78.921875 67.736937 78.921875 67.460938 L 78.921875 61.460938 C 78.921875 61.184937 78.697875 60.960938 78.421875 60.960938 L 72.421875 60.960938 z M 22.921875 61.960938 L 27.921875 61.960938 L 27.921875 66.960938 L 22.921875 66.960938 L 22.921875 61.960938 z M 32.921875 61.960938 L 37.921875 61.960938 L 37.921875 66.960938 L 32.921875 66.960938 L 32.921875 61.960938 z M 42.921875 61.960938 L 47.921875 61.960938 L 47.921875 66.960938 L 42.921875 66.960938 L 42.921875 61.960938 z M 52.921875 61.960938 L 57.921875 61.960938 L 57.921875 66.960938 L 52.921875 66.960938 L 52.921875 61.960938 z M 62.921875 61.960938 L 67.921875 61.960938 L 67.921875 66.960938 L 62.921875 66.960938 L 62.921875 61.960938 z M 72.921875 61.960938 L 77.921875 61.960938 L 77.921875 66.960938 L 72.921875 66.960938 L 72.921875 61.960938 z M 22.421875 70.960938 C 22.145875 70.960938 21.921875 71.184938 21.921875 71.460938 L 21.921875 77.460938 C 21.921875 77.736938 22.145875 77.960938 22.421875 77.960938 L 28.421875 77.960938 C 28.698875 77.960938 28.921875 77.736937 28.921875 77.460938 L 28.921875 71.460938 C 28.921875 71.184937 28.697875 70.960938 28.421875 70.960938 L 22.421875 70.960938 z M 32.421875 70.960938 C 32.145875 70.960938 31.921875 71.184938 31.921875 71.460938 L 31.921875 77.460938 C 31.921875 77.736938 32.145875 77.960938 32.421875 77.960938 L 38.421875 77.960938 C 38.698875 77.960938 38.921875 77.736937 38.921875 77.460938 L 38.921875 71.460938 C 38.921875 71.184937 38.697875 70.960938 38.421875 70.960938 L 32.421875 70.960938 z M 42.421875 70.960938 C 42.145875 70.960938 41.921875 71.184938 41.921875 71.460938 L 41.921875 77.460938 C 41.921875 77.736938 42.145875 77.960938 42.421875 77.960938 L 48.421875 77.960938 C 48.698875 77.960938 48.921875 77.736937 48.921875 77.460938 L 48.921875 71.460938 C 48.921875 71.184937 48.697875 70.960938 48.421875 70.960938 L 42.421875 70.960938 z M 52.421875 70.960938 C 52.145875 70.960938 51.921875 71.184938 51.921875 71.460938 L 51.921875 77.460938 C 51.921875 77.736938 52.145875 77.960938 52.421875 77.960938 L 57.421875 77.960938 C 57.698875 77.960938 57.921875 77.736937 57.921875 77.460938 C 57.921875 77.184937 57.697875 76.960938 57.421875 76.960938 L 52.921875 76.960938 L 52.921875 71.960938 L 57.921875 71.960938 L 57.921875 75.460938 C 57.921875 75.736938 58.145875 75.960938 58.421875 75.960938 C 58.697875 75.960938 58.921875 75.736937 58.921875 75.460938 L 58.921875 71.460938 C 58.921875 71.184937 58.697875 70.960938 58.421875 70.960938 L 52.421875 70.960938 z M 22.921875 71.960938 L 27.921875 71.960938 L 27.921875 76.960938 L 22.921875 76.960938 L 22.921875 71.960938 z M 32.921875 71.960938 L 37.921875 71.960938 L 37.921875 76.960938 L 32.921875 76.960938 L 32.921875 71.960938 z M 42.921875 71.960938 L 47.921875 71.960938 L 47.921875 76.960938 L 42.921875 76.960938 L 42.921875 71.960938 z"/></svg>

<svg xmlns="http://www.w3.org/2000/svg" viewBox="0 0 100 100" width="20" height="20"><path d="M25.922 11.96a1 1 0 00-1 1v2h-2.233c-4.834 0-8.767 3.935-8.767 8.769v61.494a3.742 3.742 0 003.738 3.738h65.774a3.495 3.495 0 003.49-3.486V23.729c0-4.834-3.936-8.768-8.77-8.768h-2.232v-2a1 1 0 10-2 0v2h-5v-2a1 1 0 10-2 0v2h-5v-2a1 1 0 10-2 0v2h-5v-2a1 1 0 10-2 0v2h-5v-2a1 1 0 10-2 0v2h-5v-2a1 1 0 10-2 0v2h-5v-2a1 1 0 10-2 0v2h-5v-2a1 1 0 00-1-1zm-3.233 5h2.233v2a1 1 0 102 0v-2h5v2a1 1 0 102 0v-2h5v2a1 1 0 102 0v-2h5v2a1 1 0 102 0v-2h5v2a1 1 0 102 0v-2h5v2a1 1 0 102 0v-2h5v2a1 1 0 102 0v-2h5v2a1 1 0 102 0v-2h2.23a6.775 6.775 0 016.768 6.769v7.232h-3.498a.5.5 0 000 1h3.498v53.514c0 .82-.666 1.486-1.486 1.486H17.66a1.74 1.74 0 01-1.738-1.738V31.96h59.5a.5.5 0 100-1h-59.5v-7.232a6.776 6.776 0 016.767-6.768zm1.733 4a2.503 2.503 0 00-2.5 2.5c0 1.379 1.12 2.5 2.5 2.5 1.379 0 2.5-1.121 2.5-2.5 0-1.377-1.121-2.5-2.5-2.5zm52 0a2.503 2.503 0 00-2.5 2.5c0 1.379 1.12 2.5 2.5 2.5 1.379 0 2.5-1.121 2.5-2.5 0-1.377-1.121-2.5-2.5-2.5zm-52 1c.827 0 1.5.674 1.5 1.5 0 .828-.673 1.5-1.5 1.5s-1.5-.672-1.5-1.5c0-.826.673-1.5 1.5-1.5zm52 0c.827 0 1.5.674 1.5 1.5 0 .828-.673 1.5-1.5 1.5s-1.5-.672-1.5-1.5c0-.826.673-1.5 1.5-1.5zm1 9a.5.5 0 000 1h2a.5.5 0 100-1h-2zm-41 10a.5.5 0 000 1h1.5v5h-5v-2.5a.5.5 0 00-1 0v3a.5.5 0 00.5.5h6a.5.5 0 00.5-.5v-6a.5.5 0 00-.5-.5h-2zm6 0a.5.5 0 00-.5.5v6a.5.5 0 00.5.5h6a.5.5 0 00.5-.5v-6a.5.5 0 00-.5-.5h-6zm10 0a.5.5 0 00-.5.5v6a.5.5 0 00.5.5h6a.5.5 0 00.5-.5v-6a.5.5 0 00-.5-.5h-6zm10 0a.5.5 0 00-.5.5v6a.5.5 0 00.5.5h6a.5.5 0 00.5-.5v-6a.5.5 0 00-.5-.5h-6zm10 0a.5.5 0 00-.5.5v6a.5.5 0 00.5.5h6a.5.5 0 00.5-.5v-6a.5.5 0 00-.5-.5h-6zm-29.5 1h5v5h-5v-5zm10 0h5v5h-5v-5zm10 0h5v5h-5v-5zm10 0h5v5h-5v-5zm-50.5 9a.5.5 0 00-.5.5v6a.5.5 0 00.5.5h6a.5.5 0 00.5-.5v-6a.5.5 0 00-.5-.5h-6zm10 0a.5.5 0 00-.5.5v6a.5.5 0 00.5.5h6a.5.5 0 00.5-.5v-6a.5.5 0 00-.5-.5h-6zm10 0a.5.5 0 00-.5.5v6a.5.5 0 00.5.5h6a.5.5 0 00.5-.5v-6a.5.5 0 00-.5-.5h-6zm10 0a.5.5 0 00-.5.5v6a.5.5 0 00.5.5h6a.5.5 0 00.5-.5v-6a.5.5 0 00-.5-.5h-6zm10 0a.5.5 0 00-.5.5v6a.5.5 0 00.5.5h6a.5.5 0 00.5-.5v-6a.5.5 0 00-.5-.5h-6zm10 0a.5.5 0 00-.5.5v6a.5.5 0 00.5.5h6a.5.5 0 00.5-.5v-6a.5.5 0 00-.5-.5h-6zm-49.5 1h5v5h-5v-5zm10 0h5v5h-5v-5zm10 0h5v5h-5v-5zm10 0h5v5h-5v-5zm10 0h5v5h-5v-5zm10 0h5v5h-5v-5zm-50.5 9a.5.5 0 00-.5.5v6a.5.5 0 00.5.5h6a.5.5 0 00.5-.5v-6a.5.5 0 00-.5-.5h-6zm10 0a.5.5 0 00-.5.5v6a.5.5 0 00.5.5h6a.5.5 0 00.5-.5v-6a.5.5 0 00-.5-.5h-6zm10 0a.5.5 0 00-.5.5v6a.5.5 0 00.5.5h6a.5.5 0 00.5-.5v-6a.5.5 0 00-.5-.5h-6zm10 0a.5.5 0 00-.5.5v6a.5.5 0 00.5.5h6a.5.5 0 00.5-.5v-6a.5.5 0 00-.5-.5h-6zm10 0a.5.5 0 00-.5.5v6a.5.5 0 00.5.5h6a.5.5 0 00.5-.5v-6a.5.5 0 00-.5-.5h-6zm10 0a.5.5 0 00-.5.5v6a.5.5 0 00.5.5h6a.5.5 0 00.5-.5v-6a.5.5 0 00-.5-.5h-6zm-49.5 1h5v5h-5v-5zm10 0h5v5h-5v-5zm10 0h5v5h-5v-5zm10 0h5v5h-5v-5zm10 0h5v5h-5v-5zm10 0h5v5h-5v-5zm-50.5 9a.5.5 0 00-.5.5v6a.5.5 0 00.5.5h6a.5.5 0 00.5-.5v-6a.5.5 0 00-.5-.5h-6zm10 0a.5.5 0 00-.5.5v6a.5.5 0 00.5.5h6a.5.5 0 00.5-.5v-6a.5.5 0 00-.5-.5h-6zm10 0a.5.5 0 00-.5.5v6a.5.5 0 00.5.5h6a.5.5 0 00.5-.5v-6a.5.5 0 00-.5-.5h-6zm10 0a.5.5 0 00-.5.5v6a.5.5 0 00.5.5h5a.5.5 0 100-1h-4.5v-5h5v3.5a.5.5 0 001 0v-4a.5.5 0 00-.5-.5h-6zm-29.5 1h5v5h-5v-5zm10 0h5v5h-5v-5zm10 0h5v5h-5v-5z"/></svg>
